images/Chk1N146.svg

<?xml version="1.0" encoding="UTF-8"?>
<svg xmlns="http://www.w3.org/2000/svg" xmlns:xlink="http://www.w3.org/1999/xlink" width="300pt" height="300pt" viewBox="0 0 300 300" version="1.1">
<defs>
<g>
<symbol overflow="visible" id="glyph0-0">
<path style="stroke:none;" d="M 0.453125 1.59375 L 0.453125 -6.34375 L 4.953125 -6.34375 L 4.953125 1.59375 Z M 0.953125 1.09375 L 4.453125 1.09375 L 4.453125 -5.84375 L 0.953125 -5.84375 Z M 0.953125 1.09375 "/>
</symbol>
<symbol overflow="visible" id="glyph0-1">
<path style="stroke:none;" d="M 3.546875 -5.953125 C 2.898438 -5.953125 2.382812 -5.710938 2 -5.234375 C 1.625 -4.753906 1.4375 -4.101562 1.4375 -3.28125 C 1.4375 -2.445312 1.625 -1.789062 2 -1.3125 C 2.382812 -0.832031 2.898438 -0.59375 3.546875 -0.59375 C 4.191406 -0.59375 4.703125 -0.832031 5.078125 -1.3125 C 5.453125 -1.789062 5.640625 -2.445312 5.640625 -3.28125 C 5.640625 -4.101562 5.453125 -4.753906 5.078125 -5.234375 C 4.703125 -5.710938 4.191406 -5.953125 3.546875 -5.953125 Z M 3.546875 -6.6875 C 4.460938 -6.6875 5.195312 -6.375 5.75 -5.75 C 6.300781 -5.132812 6.578125 -4.3125 6.578125 -3.28125 C 6.578125 -2.238281 6.300781 -1.410156 5.75 -0.796875 C 5.195312 -0.179688 4.460938 0.125 3.546875 0.125 C 2.617188 0.125 1.878906 -0.179688 1.328125 -0.796875 C 0.773438 -1.410156 0.5 -2.238281 0.5 -3.28125 C 0.5 -4.3125 0.773438 -5.132812 1.328125 -5.75 C 1.878906 -6.375 2.617188 -6.6875 3.546875 -6.6875 Z M 3.546875 -6.6875 "/>
</symbol>
<symbol overflow="visible" id="glyph0-2">
<path style="stroke:none;" d="M 0.890625 -6.5625 L 1.765625 -6.5625 L 1.765625 -3.875 L 5 -3.875 L 5 -6.5625 L 5.890625 -6.5625 L 5.890625 0 L 5 0 L 5 -3.125 L 1.765625 -3.125 L 1.765625 0 L 0.890625 0 Z M 0.890625 -6.5625 "/>
</symbol>
<symbol overflow="visible" id="glyph0-3">
<path style="stroke:none;" d="M 0.890625 -6.5625 L 2.078125 -6.5625 L 4.984375 -1.078125 L 4.984375 -6.5625 L 5.84375 -6.5625 L 5.84375 0 L 4.65625 0 L 1.75 -5.484375 L 1.75 0 L 0.890625 0 Z M 0.890625 -6.5625 "/>
</symbol>
</g>
</defs>
<g id="surface289">
<rect x="0" y="0" width="300" height="300" style="fill:rgb(100%,100%,100%);fill-opacity:1;stroke:none;"/>
<path style="fill:none;stroke-width:1.2;stroke-linecap:butt;stroke-linejoin:miter;stroke:rgb(0%,0%,0%);stroke-opacity:1;stroke-miterlimit:10;" d="M 35.25 164.363281 L 44.503906 167.921875 "/>
<path style="fill:none;stroke-width:1.2;stroke-linecap:butt;stroke-linejoin:miter;stroke:rgb(100%,0%,0%);stroke-opacity:1;stroke-miterlimit:10;" d="M 44.503906 167.921875 L 53.757812 171.484375 "/>
<path style="fill:none;stroke-width:1.2;stroke-linecap:butt;stroke-linejoin:miter;stroke:rgb(100%,0%,0%);stroke-opacity:1;stroke-miterlimit:10;" d="M 53.757812 171.484375 L 61.464844 165.25 "/>
<path style="fill:none;stroke-width:1.2;stroke-linecap:butt;stroke-linejoin:miter;stroke:rgb(0%,0%,0%);stroke-opacity:1;stroke-miterlimit:10;" d="M 61.464844 165.25 L 69.175781 159.015625 "/>
<path style=" stroke:none;fill-rule:nonzero;fill:rgb(100%,100%,100%);fill-opacity:1;" d="M 49.757812 165.984375 L 57.757812 165.984375 L 57.757812 176.984375 L 49.757812 176.984375 Z M 49.757812 165.984375 "/>
<g style="fill:rgb(100%,0%,0%);fill-opacity:1;">
  <use xlink:href="#glyph0-1" x="49.757812" y="174.647461"/>
</g>
<path style="fill:none;stroke-width:1.2;stroke-linecap:butt;stroke-linejoin:miter;stroke:rgb(0%,0%,0%);stroke-opacity:1;stroke-miterlimit:10;" d="M 69.175781 159.015625 L 66.089844 139.429688 "/>
<path style="fill:none;stroke-width:1.2;stroke-linecap:butt;stroke-linejoin:miter;stroke:rgb(0%,0%,0%);stroke-opacity:1;stroke-miterlimit:10;" d="M 73.476562 156.332031 L 71.007812 140.660156 "/>
<path style="fill:none;stroke-width:1.2;stroke-linecap:butt;stroke-linejoin:miter;stroke:rgb(0%,0%,0%);stroke-opacity:1;stroke-miterlimit:10;" d="M 87.683594 166.136719 L 69.175781 159.015625 "/>
<path style="fill:none;stroke-width:1.2;stroke-linecap:butt;stroke-linejoin:miter;stroke:rgb(0%,0%,0%);stroke-opacity:1;stroke-miterlimit:10;" d="M 66.089844 139.429688 L 56.835938 135.867188 "/>
<path style="fill:none;stroke-width:1.2;stroke-linecap:butt;stroke-linejoin:miter;stroke:rgb(100%,0%,0%);stroke-opacity:1;stroke-miterlimit:10;" d="M 56.835938 135.867188 L 47.582031 132.308594 "/>
<path style="fill:none;stroke-width:1.2;stroke-linecap:butt;stroke-linejoin:miter;stroke:rgb(0%,0%,0%);stroke-opacity:1;stroke-miterlimit:10;" d="M 66.089844 139.429688 L 81.507812 126.960938 "/>
<path style=" stroke:none;fill-rule:nonzero;fill:rgb(100%,100%,100%);fill-opacity:1;" d="M 32.582031 126.808594 L 47.582031 126.808594 L 47.582031 137.808594 L 32.582031 137.808594 Z M 32.582031 126.808594 "/>
<g style="fill:rgb(100%,0%,0%);fill-opacity:1;">
  <use xlink:href="#glyph0-2" x="32.582031" y="135.47168"/>
  <use xlink:href="#glyph0-1" x="39.59668" y="135.47168"/>
</g>
<path style="fill:none;stroke-width:1.2;stroke-linecap:butt;stroke-linejoin:miter;stroke:rgb(0%,0%,0%);stroke-opacity:1;stroke-miterlimit:10;" d="M 81.507812 126.960938 L 100.015625 134.082031 "/>
<path style="fill:none;stroke-width:1.2;stroke-linecap:butt;stroke-linejoin:miter;stroke:rgb(0%,0%,0%);stroke-opacity:1;stroke-miterlimit:10;" d="M 81.683594 132.027344 L 96.488281 137.726562 "/>
<path style="fill:none;stroke-width:1.2;stroke-linecap:butt;stroke-linejoin:miter;stroke:rgb(0%,0%,0%);stroke-opacity:1;stroke-miterlimit:10;" d="M 100.015625 134.082031 L 103.101562 153.671875 "/>
<path style="fill:none;stroke-width:1.2;stroke-linecap:butt;stroke-linejoin:miter;stroke:rgb(0%,0%,0%);stroke-opacity:1;stroke-miterlimit:10;" d="M 103.101562 153.671875 L 121.609375 160.789062 "/>
<path style="fill:none;stroke-width:1.2;stroke-linecap:butt;stroke-linejoin:miter;stroke:rgb(0%,0%,0%);stroke-opacity:1;stroke-miterlimit:10;" d="M 103.101562 153.671875 L 87.683594 166.136719 "/>
<path style="fill:none;stroke-width:1.2;stroke-linecap:butt;stroke-linejoin:miter;stroke:rgb(0%,0%,0%);stroke-opacity:1;stroke-miterlimit:10;" d="M 98.628906 151.289062 L 86.292969 161.261719 "/>
<path style="fill:none;stroke-width:1.2;stroke-linecap:butt;stroke-linejoin:miter;stroke:rgb(0%,0%,0%);stroke-opacity:1;stroke-miterlimit:10;" d="M 121.609375 160.789062 L 140.117188 167.910156 "/>
<path style="fill:none;stroke-width:1.2;stroke-linecap:butt;stroke-linejoin:miter;stroke:rgb(0%,0%,0%);stroke-opacity:1;stroke-miterlimit:10;" d="M 121.785156 165.855469 L 136.589844 171.554688 "/>
<path style="fill:none;stroke-width:1.2;stroke-linecap:butt;stroke-linejoin:miter;stroke:rgb(0%,0%,0%);stroke-opacity:1;stroke-miterlimit:10;" d="M 125.136719 157.148438 L 139.941406 162.84375 "/>
<path style="fill:none;stroke-width:1.2;stroke-linecap:butt;stroke-linejoin:miter;stroke:rgb(0%,0%,0%);stroke-opacity:1;stroke-miterlimit:10;" d="M 140.117188 167.910156 L 158.625 175.03125 "/>
<path style="fill:none;stroke-width:1.2;stroke-linecap:butt;stroke-linejoin:miter;stroke:rgb(0%,0%,0%);stroke-opacity:1;stroke-miterlimit:10;" d="M 158.625 175.03125 L 175.261719 164.242188 "/>
<path style="fill:none;stroke-width:1.2;stroke-linecap:butt;stroke-linejoin:miter;stroke:rgb(0%,0%,0%);stroke-opacity:1;stroke-miterlimit:10;" d="M 162.824219 177.867188 L 176.136719 169.238281 "/>
<path style="fill:none;stroke-width:1.2;stroke-linecap:butt;stroke-linejoin:miter;stroke:rgb(0%,0%,100%);stroke-opacity:1;stroke-miterlimit:10;" d="M 163.742188 194.1875 L 161.183594 184.609375 "/>
<path style="fill:none;stroke-width:1.2;stroke-linecap:butt;stroke-linejoin:miter;stroke:rgb(0%,0%,0%);stroke-opacity:1;stroke-miterlimit:10;" d="M 161.183594 184.609375 L 158.625 175.03125 "/>
<path style="fill:none;stroke-width:1.2;stroke-linecap:butt;stroke-linejoin:miter;stroke:rgb(0%,0%,0%);stroke-opacity:1;stroke-miterlimit:10;" d="M 175.261719 164.242188 L 182.382812 145.738281 "/>
<path style="fill:none;stroke-width:1.2;stroke-linecap:butt;stroke-linejoin:miter;stroke:rgb(0%,0%,0%);stroke-opacity:1;stroke-miterlimit:10;" d="M 175.261719 164.242188 L 190.664062 176.734375 "/>
<path style="fill:none;stroke-width:1.2;stroke-linecap:butt;stroke-linejoin:miter;stroke:rgb(0%,0%,0%);stroke-opacity:1;stroke-miterlimit:10;" d="M 182.382812 145.738281 L 202.183594 146.789062 "/>
<path style="fill:none;stroke-width:1.2;stroke-linecap:butt;stroke-linejoin:miter;stroke:rgb(0%,0%,0%);stroke-opacity:1;stroke-miterlimit:10;" d="M 202.183594 146.789062 L 207.300781 165.949219 "/>
<path style="fill:none;stroke-width:1.2;stroke-linecap:butt;stroke-linejoin:miter;stroke:rgb(0%,0%,0%);stroke-opacity:1;stroke-miterlimit:10;" d="M 207.203125 147.5 L 211.296875 162.828125 "/>
<path style="fill:none;stroke-width:1.2;stroke-linecap:butt;stroke-linejoin:miter;stroke:rgb(0%,0%,0%);stroke-opacity:1;stroke-miterlimit:10;" d="M 216.214844 132.78125 L 202.183594 146.789062 "/>
<path style="fill:none;stroke-width:1.2;stroke-linecap:butt;stroke-linejoin:miter;stroke:rgb(0%,0%,0%);stroke-opacity:1;stroke-miterlimit:10;" d="M 207.300781 165.949219 L 226.449219 171.09375 "/>
<path style="fill:none;stroke-width:1.2;stroke-linecap:butt;stroke-linejoin:miter;stroke:rgb(0%,0%,0%);stroke-opacity:1;stroke-miterlimit:10;" d="M 190.664062 176.734375 L 207.300781 165.949219 "/>
<path style="fill:none;stroke-width:1.2;stroke-linecap:butt;stroke-linejoin:miter;stroke:rgb(0%,0%,0%);stroke-opacity:1;stroke-miterlimit:10;" d="M 226.449219 171.09375 L 240.484375 157.085938 "/>
<path style="fill:none;stroke-width:1.2;stroke-linecap:butt;stroke-linejoin:miter;stroke:rgb(0%,0%,0%);stroke-opacity:1;stroke-miterlimit:10;" d="M 224.558594 166.390625 L 235.78125 155.183594 "/>
<path style="fill:none;stroke-width:1.2;stroke-linecap:butt;stroke-linejoin:miter;stroke:rgb(0%,0%,0%);stroke-opacity:1;stroke-miterlimit:10;" d="M 240.484375 157.085938 L 250.058594 159.65625 "/>
<path style="fill:none;stroke-width:1.2;stroke-linecap:butt;stroke-linejoin:miter;stroke:rgb(100%,0%,0%);stroke-opacity:1;stroke-miterlimit:10;" d="M 250.058594 159.65625 L 259.632812 162.230469 "/>
<path style="fill:none;stroke-width:1.2;stroke-linecap:butt;stroke-linejoin:miter;stroke:rgb(0%,0%,0%);stroke-opacity:1;stroke-miterlimit:10;" d="M 240.484375 157.085938 L 235.367188 137.925781 "/>
<path style="fill:none;stroke-width:1.2;stroke-linecap:butt;stroke-linejoin:miter;stroke:rgb(100%,0%,0%);stroke-opacity:1;stroke-miterlimit:10;" d="M 259.632812 162.230469 L 262.191406 171.808594 "/>
<path style="fill:none;stroke-width:1.2;stroke-linecap:butt;stroke-linejoin:miter;stroke:rgb(0%,0%,0%);stroke-opacity:1;stroke-miterlimit:10;" d="M 262.191406 171.808594 L 264.75 181.386719 "/>
<path style=" stroke:none;fill-rule:nonzero;fill:rgb(100%,100%,100%);fill-opacity:1;" d="M 255.632812 156.730469 L 263.632812 156.730469 L 263.632812 167.730469 L 255.632812 167.730469 Z M 255.632812 156.730469 "/>
<g style="fill:rgb(100%,0%,0%);fill-opacity:1;">
  <use xlink:href="#glyph0-1" x="255.632812" y="165.393555"/>
</g>
<path style="fill:none;stroke-width:1.2;stroke-linecap:butt;stroke-linejoin:miter;stroke:rgb(0%,0%,0%);stroke-opacity:1;stroke-miterlimit:10;" d="M 235.367188 137.925781 L 242.382812 130.921875 "/>
<path style="fill:none;stroke-width:1.2;stroke-linecap:butt;stroke-linejoin:miter;stroke:rgb(100%,0%,0%);stroke-opacity:1;stroke-miterlimit:10;" d="M 242.382812 130.921875 L 249.398438 123.914062 "/>
<path style="fill:none;stroke-width:1.2;stroke-linecap:butt;stroke-linejoin:miter;stroke:rgb(0%,0%,0%);stroke-opacity:1;stroke-miterlimit:10;" d="M 235.367188 137.925781 L 216.214844 132.78125 "/>
<path style="fill:none;stroke-width:1.2;stroke-linecap:butt;stroke-linejoin:miter;stroke:rgb(0%,0%,0%);stroke-opacity:1;stroke-miterlimit:10;" d="M 232.238281 141.917969 L 216.917969 137.800781 "/>
<path style="fill:none;stroke-width:1.2;stroke-linecap:butt;stroke-linejoin:miter;stroke:rgb(100%,0%,0%);stroke-opacity:1;stroke-miterlimit:10;" d="M 249.398438 123.914062 L 246.839844 114.335938 "/>
<path style="fill:none;stroke-width:1.2;stroke-linecap:butt;stroke-linejoin:miter;stroke:rgb(0%,0%,0%);stroke-opacity:1;stroke-miterlimit:10;" d="M 246.839844 114.335938 L 244.28125 104.757812 "/>
<path style=" stroke:none;fill-rule:nonzero;fill:rgb(100%,100%,100%);fill-opacity:1;" d="M 245.398438 118.414062 L 253.398438 118.414062 L 253.398438 129.414062 L 245.398438 129.414062 Z M 245.398438 118.414062 "/>
<g style="fill:rgb(100%,0%,0%);fill-opacity:1;">
  <use xlink:href="#glyph0-1" x="245.398438" y="127.077148"/>
</g>
<path style="fill:none;stroke-width:1.2;stroke-linecap:butt;stroke-linejoin:miter;stroke:rgb(0%,0%,0%);stroke-opacity:1;stroke-miterlimit:10;" d="M 190.664062 176.734375 L 187.101562 185.988281 "/>
<path style="fill:none;stroke-width:1.2;stroke-linecap:butt;stroke-linejoin:miter;stroke:rgb(0%,0%,100%);stroke-opacity:1;stroke-miterlimit:10;" d="M 187.101562 185.988281 L 183.542969 195.242188 "/>
<path style="fill:none;stroke-width:1.2;stroke-linecap:butt;stroke-linejoin:miter;stroke:rgb(0%,0%,0%);stroke-opacity:1;stroke-miterlimit:10;" d="M 185.597656 176.910156 L 182.746094 184.3125 "/>
<path style="fill:none;stroke-width:1.2;stroke-linecap:butt;stroke-linejoin:miter;stroke:rgb(0%,0%,100%);stroke-opacity:1;stroke-miterlimit:10;" d="M 182.746094 184.3125 L 179.898438 191.714844 "/>
<path style="fill:none;stroke-width:1.2;stroke-linecap:butt;stroke-linejoin:miter;stroke:rgb(0%,0%,100%);stroke-opacity:1;stroke-miterlimit:10;" d="M 183.542969 195.242188 L 163.742188 194.1875 "/>
<path style=" stroke:none;fill-rule:nonzero;fill:rgb(100%,100%,100%);fill-opacity:1;" d="M 180.542969 189.742188 L 187.542969 189.742188 L 187.542969 200.742188 L 180.542969 200.742188 Z M 180.542969 189.742188 "/>
<g style="fill:rgb(0%,0%,100%);fill-opacity:1;">
  <use xlink:href="#glyph0-3" x="180.542969" y="198.405273"/>
</g>
<path style=" stroke:none;fill-rule:nonzero;fill:rgb(100%,100%,100%);fill-opacity:1;" d="M 156.742188 188.6875 L 170.742188 188.6875 L 170.742188 199.6875 L 156.742188 199.6875 Z M 156.742188 188.6875 "/>
<g style="fill:rgb(0%,0%,100%);fill-opacity:1;">
  <use xlink:href="#glyph0-3" x="156.742188" y="197.350586"/>
  <use xlink:href="#glyph0-2" x="163.719727" y="197.350586"/>
</g>
</g>
</svg>

<svg xmlns="http://www.w3.org/2000/svg" xmlns:xlink="http://www.w3.org/1999/xlink" width="300pt" height="300pt" viewBox="0 0 300 300"><defs><symbol overflow="visible"><path d="M.453 1.594v-7.938h4.5v7.938zm.5-.5h3.5v-6.938h-3.5zm0 0"/></symbol><symbol overflow="visible" id="a"><path d="M3.547-5.953c-.65 0-1.164.242-1.547.72-.375.48-.563 1.13-.563 1.952 0 .835.188 1.49.563 1.967.383.48.898.72 1.547.72.644 0 1.156-.24 1.53-.72.376-.476.564-1.132.564-1.968 0-.822-.187-1.474-.562-1.954-.375-.477-.887-.72-1.53-.72zm0-.734c.914 0 1.648.312 2.203.937.55.617.828 1.438.828 2.47 0 1.042-.277 1.87-.828 2.483-.555.617-1.29.922-2.203.922-.93 0-1.668-.305-2.22-.922C.774-1.41.5-2.237.5-3.28c0-1.033.273-1.853.828-2.47.55-.625 1.29-.938 2.22-.938zm0 0"/></symbol><symbol overflow="visible" id="b"><path d="M.89-6.563h.876v2.688H5v-2.688h.89V0H5v-3.125H1.766V0H.89zm0 0"/></symbol><symbol overflow="visible" id="c"><path d="M.89-6.563H2.08l2.906 5.485v-5.484h.86V0H4.656L1.75-5.484V0H.89zm0 0"/></symbol></defs><g><path fill="#fff" d="M0 0h300v300H0z"/><path d="M35.25 164.363l9.254 3.56" stroke-width="1.2" stroke="#000" stroke-miterlimit="10" fill="none"/><path d="M44.504 167.922l9.254 3.562M53.758 171.484l7.707-6.234" stroke-width="1.2" stroke="#f00" stroke-miterlimit="10" fill="none"/><path d="M61.465 165.25l7.71-6.234" stroke-width="1.2" stroke="#000" stroke-miterlimit="10" fill="none"/><path d="M49.758 165.984h8v11h-8zm0 0" fill="#fff"/><use xlink:href="#a" x="49.758" y="174.647" fill="#f00"/><path d="M69.176 159.016L66.09 139.43M73.477 156.332l-2.47-15.672M87.684 166.137l-18.508-7.12M66.09 139.43l-9.254-3.563" stroke-width="1.2" stroke="#000" stroke-miterlimit="10" fill="none"/><path d="M56.836 135.867l-9.254-3.558" stroke-width="1.2" stroke="#f00" stroke-miterlimit="10" fill="none"/><path d="M66.09 139.43l15.418-12.47" stroke-width="1.2" stroke="#000" stroke-miterlimit="10" fill="none"/><path d="M32.582 126.81h15v11h-15zm0 0" fill="#fff"/><g fill="#f00"><use xlink:href="#b" x="32.582" y="135.472"/><use xlink:href="#a" x="39.597" y="135.472"/></g><path d="M81.508 126.96l18.508 7.122M81.684 132.027l14.804 5.7M100.016 134.082l3.086 19.59M103.102 153.672l18.507 7.117M103.102 153.672l-15.418 12.465M98.63 151.29l-12.337 9.972M121.61 160.79l18.507 7.12M121.785 165.855l14.805 5.7M125.137 157.148l14.804 5.696M140.117 167.91l18.508 7.12M158.625 175.03l16.637-10.788M162.824 177.867l13.313-8.63" stroke-width="1.2" stroke="#000" stroke-miterlimit="10" fill="none"/><path d="M163.742 194.188l-2.558-9.58" stroke-width="1.2" stroke="#00f" stroke-miterlimit="10" fill="none"/><path d="M161.184 184.61l-2.56-9.58M175.262 164.242l7.12-18.504M175.262 164.242l15.402 12.492M182.383 145.738l19.8 1.05M202.184 146.79l5.117 19.16M207.203 147.5l4.094 15.328M216.215 132.78l-14.03 14.01M207.3 165.95l19.15 5.144M190.664 176.734L207.3 165.95M226.45 171.094l14.034-14.008M224.56 166.39l11.22-11.206M240.484 157.086l9.575 2.57" stroke-width="1.2" stroke="#000" stroke-miterlimit="10" fill="none"/><path d="M250.06 159.656l9.573 2.574" stroke-width="1.2" stroke="#f00" stroke-miterlimit="10" fill="none"/><path d="M240.484 157.086l-5.117-19.16" stroke-width="1.2" stroke="#000" stroke-miterlimit="10" fill="none"/><path d="M259.633 162.23l2.558 9.58" stroke-width="1.2" stroke="#f00" stroke-miterlimit="10" fill="none"/><path d="M262.19 171.81l2.56 9.577" stroke-width="1.2" stroke="#000" stroke-miterlimit="10" fill="none"/><path d="M255.633 156.73h8v11h-8zm0 0" fill="#fff"/><use xlink:href="#a" x="255.633" y="165.394" fill="#f00"/><path d="M235.367 137.926l7.016-7.004" stroke-width="1.2" stroke="#000" stroke-miterlimit="10" fill="none"/><path d="M242.383 130.922l7.015-7.008" stroke-width="1.2" stroke="#f00" stroke-miterlimit="10" fill="none"/><path d="M235.367 137.926l-19.152-5.145M232.238 141.918l-15.32-4.117" stroke-width="1.2" stroke="#000" stroke-miterlimit="10" fill="none"/><path d="M249.398 123.914l-2.558-9.578" stroke-width="1.2" stroke="#f00" stroke-miterlimit="10" fill="none"/><path d="M246.84 114.336l-2.56-9.578" stroke-width="1.2" stroke="#000" stroke-miterlimit="10" fill="none"/><path d="M245.398 118.414h8v11h-8zm0 0" fill="#fff"/><use xlink:href="#a" x="245.398" y="127.077" fill="#f00"/><path d="M190.664 176.734l-3.562 9.254" stroke-width="1.2" stroke="#000" stroke-miterlimit="10" fill="none"/><path d="M187.102 185.988l-3.56 9.254" stroke-width="1.2" stroke="#00f" stroke-miterlimit="10" fill="none"/><path d="M185.598 176.91l-2.852 7.403" stroke-width="1.2" stroke="#000" stroke-miterlimit="10" fill="none"/><path d="M182.746 184.313l-2.848 7.402M183.543 195.242l-19.8-1.054" stroke-width="1.2" stroke="#00f" stroke-miterlimit="10" fill="none"/><path d="M180.543 189.742h7v11h-7zm0 0" fill="#fff"/><use xlink:href="#c" x="180.543" y="198.405" fill="#00f"/><path d="M156.742 188.688h14v11h-14zm0 0" fill="#fff"/><g fill="#00f"><use xlink:href="#c" x="156.742" y="197.351"/><use xlink:href="#b" x="163.72" y="197.351"/></g></g></svg>
